Obsidian-SemiLight/actions/24s/document-edit-sign.svg

<svg viewBox="0 0 24 24" xmlns="http://www.w3.org/2000/svg"><path d="m5 4v1 14 1h5v-1h-4v-14h12v7h1v-8zm12 8-.996094.994141h-.003906l-5 4.99414.007812.001953-.003906 1.001954h-.003906v.990234h2 .005859.003907.009765l-.005859-.001953.986328-.986328 4-3.992188-.705078-.708984-4.990234 4.982422-.59375-.591797 4.992187-4.984375.591797.59375.705078.703125 1-1z" fill="#4d4d4d"/></svg>

<svg xmlns="http://www.w3.org/2000/svg" viewBox="0 0 24 24">
  <defs id="defs3051">
    <style type="text/css" id="current-color-scheme">
      .ColorScheme-Text {
        color:#4d4d4d;
      }
      </style>
  </defs>
 <path style="fill:currentColor;fill-opacity:1;stroke:none" 
     d="M 5 4 L 5 5 L 5 19 L 5 20 L 10 20 L 10 19 L 6 19 L 6 5 L 18 5 L 18 12 L 19 12 L 19 4 L 5 4 z M 17 12 L 16.003906 12.994141 L 16 12.994141 L 11 17.988281 L 11.007812 17.990234 L 11.003906 18.992188 L 11 18.992188 L 11 19.982422 L 13 19.982422 L 13.005859 19.982422 L 13.009766 19.982422 L 13.019531 19.982422 L 13.013672 19.980469 L 14 18.994141 L 18 15.001953 L 17.294922 14.292969 L 12.304688 19.275391 L 11.710938 18.683594 L 16.703125 13.699219 L 17.294922 14.292969 L 18 14.996094 L 19 13.996094 L 17 12 z "
     class="ColorScheme-Text"
     />
</svg>
